icons/1_Primary/Kickstarter.svg

<svg xmlns="http://www.w3.org/2000/svg" width="1024" height="1024" fill="none">
   <g clip-path="url(#a)">
      <path fill="#98DC9A" d="M512 1024c282.77 0 512-229.23 512-512S794.77 0 512 0 0 229.23 0 512s229.23 512 512 512Z"/>
      <path fill="#fff" d="m656 512.1 46.6-46.2c48.2-47.9 48.2-125.9 0-173.8-48.2-47.9-126.8-47.9-175 0l-17 16.8c-22.4-32-59.4-52.9-101.7-52.9-68.3 0-123.7 55-123.7 122.8v266.3c0 67.8 55.4 122.8 123.7 122.8 42.3 0 79.3-20.9 101.7-52.9l17 16.8c48.2 47.9 126.8 47.9 175 0s48.2-125.9 0-173.8L656 512.1Z"/>
   </g>
   <defs>
      <clipPath id="a">
         <path fill="#fff" d="M0 0h1024v1024H0z"/>
      </clipPath>
   </defs>
</svg>

<svg width="1024" height="1024" viewBox="0 0 1024 1024" fill="none" xmlns="http://www.w3.org/2000/svg">
<g clip-path="url(#clip0_2_2604)">
<path d="M512 1024C794.77 1024 1024 794.77 1024 512C1024 229.23 794.77 0 512 0C229.23 0 0 229.23 0 512C0 794.77 229.23 1024 512 1024Z" fill="#98DC9A"/>
<path d="M656 512.1L702.6 465.9C750.8 418 750.8 340 702.6 292.1C654.4 244.2 575.8 244.2 527.6 292.1L510.6 308.9C488.2 276.9 451.2 256 408.9 256C340.6 256 285.2 311 285.2 378.8V645.1C285.2 712.9 340.6 767.9 408.9 767.9C451.2 767.9 488.2 747 510.6 715L527.6 731.8C575.8 779.7 654.4 779.7 702.6 731.8C750.8 683.9 750.8 605.9 702.6 558L656 512.1Z" fill="white"/>
</g>
<defs>
<clipPath id="clip0_2_2604">
<rect width="1024" height="1024" fill="white"/>
</clipPath>
</defs>
</svg>
